app/dist/common/images/quidel.svg

<svg height="18" width="18" xmlns="http://www.w3.org/2000/svg" xmlns:xlink="http://www.w3.org/1999/xlink"><linearGradient id="a" gradientUnits="userSpaceOnUse" x1="9.938" x2="10.706" y1="9.936" y2="14.001"><stop offset="0" stop-color="#1a3ced"/><stop offset="1" stop-color="#6bb4ff"/></linearGradient><linearGradient id="b" gradientUnits="userSpaceOnUse" x1="9.938" x2="12.199" y1="9.936" y2="13.979"><stop offset="0" stop-color="#1438ee"/><stop offset="1" stop-color="#6686ee"/></linearGradient><linearGradient id="c" gradientUnits="userSpaceOnUse" x1="13.812" x2="9.874" y1="13.466" y2="10.009"><stop offset="0" stop-color="#4c53fc"/><stop offset="1" stop-color="#152ddd"/></linearGradient><linearGradient id="d" gradientUnits="userSpaceOnUse" x1="13.996" x2="10.165" y1="11.097" y2="10.034"><stop offset="0" stop-color="#5d61fe"/><stop offset="1" stop-color="#1c2ae2"/></linearGradient><linearGradient id="e" gradientUnits="userSpaceOnUse" x1="13.999" x2="11.498" y1="9.089" y2="9.216"><stop offset="0" stop-color="#be84fe"/><stop offset="1" stop-color="#e5bffd"/></linearGradient><linearGradient id="f" gradientUnits="userSpaceOnUse" x1="13.999" x2="11.498" y1="7.511" y2="8.284"><stop offset="0" stop-color="#d319f0"/><stop offset="1" stop-color="#e7aefa"/></linearGradient><linearGradient id="g" gradientUnits="userSpaceOnUse" x1="13.999" x2="11.5" y1="5.897" y2="7.455"><stop offset="0" stop-color="#d4135a"/><stop offset="1" stop-color="#f674dc"/></linearGradient><linearGradient id="h" gradientUnits="userSpaceOnUse" x1="13.673" x2="11.236" y1="4.38" y2="6.753"><stop offset="0" stop-color="#e41220"/><stop offset="1" stop-color="#f14c7c"/></linearGradient><linearGradient id="i" gradientUnits="userSpaceOnUse" x1="11.816" x2="10.49" y1="4" y2="6.5"><stop offset="0" stop-color="#e72225"/><stop offset="1" stop-color="#f0616e"/></linearGradient><linearGradient id="j" gradientUnits="userSpaceOnUse" x1="10.172" x2="10.172" y1="4" y2="6.499"><stop offset="0" stop-color="#e44323"/><stop offset="1" stop-color="#ee9175"/></linearGradient><linearGradient id="k" gradientUnits="userSpaceOnUse" x1="8.901" x2="9.109" y1="4" y2="6.499"><stop offset="0" stop-color="#e25d2a"/><stop offset="1" stop-color="#ec9e73"/></linearGradient><linearGradient id="l" gradientUnits="userSpaceOnUse" x1="7.811" x2="8.455" y1="4" y2="6.494"><stop offset="0" stop-color="#dd6d1e"/><stop offset="1" stop-color="#ebab6c"/></linearGradient><linearGradient id="m" gradientUnits="userSpaceOnUse" x1="6.143" x2="7.562" y1="4" y2="6.474"><stop offset="0" stop-color="#c97a07"/><stop offset="1" stop-color="#eab147"/></linearGradient><linearGradient id="n" gradientUnits="userSpaceOnUse" x1="6.771" x2="4.284" y1="6.725" y2="4.307"><stop offset="0" stop-color="#e9c943"/><stop offset="1" stop-color="#c5990b"/></linearGradient><linearGradient id="o" gradientUnits="userSpaceOnUse" x1="6.5" x2="4.015" y1="7.508" y2="6.142"><stop offset="0" stop-color="#ece353"/><stop offset="1" stop-color="#e0cf10"/></linearGradient><linearGradient id="p" gradientUnits="userSpaceOnUse" x1="6.5" x2="3.839" y1="8.423" y2="7.909"><stop offset="0" stop-color="#f0f26d"/><stop offset="1" stop-color="#e5e82c"/></linearGradient><linearGradient id="q" gradientUnits="userSpaceOnUse" x1="6.501" x2="4" y1="9.022" y2="9.177"><stop offset="0" stop-color="#daf269"/><stop offset="1" stop-color="#c2f12a"/></linearGradient><linearGradient id="r" gradientUnits="userSpaceOnUse" x1="6.566" x2="4.015" y1="10.607" y2="12.388"><stop offset="0" stop-color="#99fa44"/><stop offset="1" stop-color="#67f821"/></linearGradient><linearGradient id="s" gradientUnits="userSpaceOnUse" x1="6.5" x2="4.004" y1="9.867" y2="10.655"><stop offset="0" stop-color="#caf768"/><stop offset="1" stop-color="#9df730"/></linearGradient><linearGradient id="t" gradientUnits="userSpaceOnUse" x1="7.682" x2="6.554" y1="11.501" y2="14.011"><stop offset="0" stop-color="#b4ffb5"/><stop offset="1" stop-color="#92ff9a"/></linearGradient><linearGradient id="u" gradientUnits="userSpaceOnUse" x1="6.849" x2="4.612" y1="11.131" y2="13.959"><stop offset="0" stop-color="#a5fc64"/><stop offset="1" stop-color="#43e90d"/></linearGradient><linearGradient id="v" gradientUnits="userSpaceOnUse" x1="9.034" x2="8.503" y1="11.501" y2="14.014"><stop offset="0" stop-color="#d5f6ff"/><stop offset="1" stop-color="#b1ffed"/></linearGradient><path d="m0 0h18v18h-18z" fill="#f0f3fa"/><path d="m11.5 13.998-1.5-3.998v3.998z" fill="url(#a)"/><path d="m13.252 14-3.252-4 1.497 4z" fill="url(#b)"/><path d="m13.996 12.565-3.996-2.565 3.248 3.998c.663-.156.775-1.02.748-1.433z" fill="url(#c)"/><path d="m13.996 10h-3.996l3.996 2.582z" fill="url(#d)"/><path d="m11.5 9.002v-.32l2.499-.516v.836h-2.5z" fill="url(#e)"/><path d="m11.5 8.69v-.7l2.499-1.176v1.371l-2.5.505z" fill="url(#f)"/><path d="m11.5 8.01v-.994l2.499-2.018v1.82l-2.5 1.192z" fill="url(#g)"/><path d="m11.5 7.016c-.025-.284-.402-.472-.556-.517l2.033-2.499c.683.042.966.686 1.022 1.002z" fill="url(#h)"/><path d="m10.945 6.5h-.861l.861-2.5h2.04z" fill="url(#i)"/><path d="m10.105 6.5h-.726l.197-2.5h1.39z" fill="url(#j)"/><path d="m9.4 6.5h-.644l-.53-2.5h1.35l-.177 2.5z" fill="url(#k)"/><path d="m8.762 6.5h-.722l-1.152-2.5h1.38z" fill="url(#l)"/><path d="m8.057 6.5h-1.003l-1.991-2.5h1.832z" fill="url(#m)"/><path d="m7.125 6.5c-.459.125-.621.453-.628.62l-2.494-1.793c-.059-.912.684-1.265 1.062-1.327z" fill="url(#n)"/><path d="m6.5 7.093v.969l-2.5-.912v-1.85z" fill="url(#o)"/><path d="m6.5 8.715v-.667l-2.5-.947v1.417z" fill="url(#p)"/><path d="m6.5 8.687-2.5-.182v1.309l2.5-.477z" fill="url(#q)"/><path d="m4 11.338 2.5-1.099c0 .523.033.823.06.896l-2.398 2.247a1.351 1.351 0 0 1 -.162-.572v-1.471z" fill="url(#r)"/><path d="m4 9.785 2.5-.467v.92l-2.5 1.1v-1.554z" fill="url(#s)"/><path d="m7.348 11.5h.895l-.961 2.5h-1.639z" fill="url(#t)"/><path d="m4.158 13.372 2.39-2.276c.153.28.59.404.801.404l-1.664 2.5h-.791c-.427-.09-.661-.469-.736-.628z" fill="url(#u)"/><path d="m8.999 14v-2.5h-.756l-.993 2.5h1.75z" fill="url(#v)"/></svg>

<!-- by TradingView --><svg width="18" height="18" xmlns="http://www.w3.org/2000/svg"><path fill="#F0F3FA" d="M0 0h18v18H0z"/><path d="M11.5 13.998L10 10v3.998h1.5z" fill="url(#paint0_linear)"/><path d="M13.252 14L10 10l1.497 4h1.755z" fill="url(#paint1_linear)"/><path d="M13.996 12.565L10 10l3.248 3.998c.663-.156.775-1.02.748-1.433z" fill="url(#paint2_linear)"/><path d="M13.996 10H10l3.996 2.582V10z" fill="url(#paint3_linear)"/><path d="M11.5 9.002v-.32l2.499-.516v.836h-2.5z" fill="url(#paint4_linear)"/><path d="M11.5 8.69v-.7l2.499-1.176v1.371l-2.5.505z" fill="url(#paint5_linear)"/><path d="M11.5 8.01v-.994l2.499-2.018v1.82l-2.5 1.192z" fill="url(#paint6_linear)"/><path d="M11.5 7.016c-.025-.284-.402-.472-.556-.517L12.977 4c.683.042.966.686 1.022 1.002L11.5 7.016z" fill="url(#paint7_linear)"/><path d="M10.945 6.5h-.861l.861-2.5h2.04l-2.04 2.5z" fill="url(#paint8_linear)"/><path d="M10.105 6.5h-.726L9.576 4h1.39l-.861 2.5z" fill="url(#paint9_linear)"/><path d="M9.4 6.5h-.644L8.226 4h1.35l-.177 2.5z" fill="url(#paint10_linear)"/><path d="M8.762 6.5H8.04L6.888 4h1.38l.494 2.5z" fill="url(#paint11_linear)"/><path d="M8.057 6.5H7.054L5.063 4h1.832l1.162 2.5z" fill="url(#paint12_linear)"/><path d="M7.125 6.5c-.459.125-.621.453-.628.62L4.003 5.327C3.944 4.415 4.687 4.062 5.065 4l2.06 2.5z" fill="url(#paint13_linear)"/><path d="M6.5 7.093v.969L4 7.15V5.3l2.5 1.793z" fill="url(#paint14_linear)"/><path d="M6.5 8.715v-.667L4 7.101v1.417l2.5.197z" fill="url(#paint15_linear)"/><path d="M6.5 8.687L4 8.505v1.309l2.5-.477v-.65z" fill="url(#paint16_linear)"/><path d="M4 11.338l2.5-1.099c0 .523.033.823.06.896l-2.398 2.247A1.351 1.351 0 014 12.81v-1.471z" fill="url(#paint17_linear)"/><path d="M4 9.785l2.5-.467v.92l-2.5 1.1V9.784z" fill="url(#paint18_linear)"/><path d="M7.348 11.5h.895L7.282 14H5.643L7.348 11.5z" fill="url(#paint19_linear)"/><path d="M4.158 13.372l2.39-2.276c.153.28.59.404.801.404L5.685 14h-.791c-.427-.09-.661-.469-.736-.628z" fill="url(#paint20_linear)"/><path d="M8.999 14v-2.5h-.756L7.25 14h1.75z" fill="url(#paint21_linear)"/><defs><linearGradient id="paint0_linear" x1="9.938" y1="9.936" x2="10.706" y2="14.001" gradientUnits="userSpaceOnUse"><stop stop-color="#1A3CED"/><stop offset="1" stop-color="#6BB4FF"/></linearGradient><linearGradient id="paint1_linear" x1="9.938" y1="9.936" x2="12.199" y2="13.979" gradientUnits="userSpaceOnUse"><stop stop-color="#1438EE"/><stop offset="1" stop-color="#6686EE"/></linearGradient><linearGradient id="paint2_linear" x1="13.812" y1="13.466" x2="9.874" y2="10.009" gradientUnits="userSpaceOnUse"><stop stop-color="#4C53FC"/><stop offset="1" stop-color="#152DDD"/></linearGradient><linearGradient id="paint3_linear" x1="13.996" y1="11.097" x2="10.165" y2="10.034" gradientUnits="userSpaceOnUse"><stop stop-color="#5D61FE"/><stop offset="1" stop-color="#1C2AE2"/></linearGradient><linearGradient id="paint4_linear" x1="13.999" y1="9.089" x2="11.498" y2="9.216" gradientUnits="userSpaceOnUse"><stop stop-color="#BE84FE"/><stop offset="1" stop-color="#E5BFFD"/></linearGradient><linearGradient id="paint5_linear" x1="13.999" y1="7.511" x2="11.498" y2="8.284" gradientUnits="userSpaceOnUse"><stop stop-color="#D319F0"/><stop offset="1" stop-color="#E7AEFA"/></linearGradient><linearGradient id="paint6_linear" x1="13.999" y1="5.897" x2="11.5" y2="7.455" gradientUnits="userSpaceOnUse"><stop stop-color="#D4135A"/><stop offset="1" stop-color="#F674DC"/></linearGradient><linearGradient id="paint7_linear" x1="13.673" y1="4.38" x2="11.236" y2="6.753" gradientUnits="userSpaceOnUse"><stop stop-color="#E41220"/><stop offset="1" stop-color="#F14C7C"/></linearGradient><linearGradient id="paint8_linear" x1="11.816" y1="4" x2="10.49" y2="6.5" gradientUnits="userSpaceOnUse"><stop stop-color="#E72225"/><stop offset="1" stop-color="#F0616E"/></linearGradient><linearGradient id="paint9_linear" x1="10.172" y1="4" x2="10.172" y2="6.499" gradientUnits="userSpaceOnUse"><stop stop-color="#E44323"/><stop offset="1" stop-color="#EE9175"/></linearGradient><linearGradient id="paint10_linear" x1="8.901" y1="4" x2="9.109" y2="6.499" gradientUnits="userSpaceOnUse"><stop stop-color="#E25D2A"/><stop offset="1" stop-color="#EC9E73"/></linearGradient><linearGradient id="paint11_linear" x1="7.811" y1="4" x2="8.455" y2="6.494" gradientUnits="userSpaceOnUse"><stop stop-color="#DD6D1E"/><stop offset="1" stop-color="#EBAB6C"/></linearGradient><linearGradient id="paint12_linear" x1="6.143" y1="4" x2="7.562" y2="6.474" gradientUnits="userSpaceOnUse"><stop stop-color="#C97A07"/><stop offset="1" stop-color="#EAB147"/></linearGradient><linearGradient id="paint13_linear" x1="6.771" y1="6.725" x2="4.284" y2="4.307" gradientUnits="userSpaceOnUse"><stop stop-color="#E9C943"/><stop offset="1" stop-color="#C5990B"/></linearGradient><linearGradient id="paint14_linear" x1="6.5" y1="7.508" x2="4.015" y2="6.142" gradientUnits="userSpaceOnUse"><stop stop-color="#ECE353"/><stop offset="1" stop-color="#E0CF10"/></linearGradient><linearGradient id="paint15_linear" x1="6.5" y1="8.423" x2="3.839" y2="7.909" gradientUnits="userSpaceOnUse"><stop stop-color="#F0F26D"/><stop offset="1" stop-color="#E5E82C"/></linearGradient><linearGradient id="paint16_linear" x1="6.501" y1="9.022" x2="4" y2="9.177" gradientUnits="userSpaceOnUse"><stop stop-color="#DAF269"/><stop offset="1" stop-color="#C2F12A"/></linearGradient><linearGradient id="paint17_linear" x1="6.566" y1="10.607" x2="4.015" y2="12.388" gradientUnits="userSpaceOnUse"><stop stop-color="#99FA44"/><stop offset="1" stop-color="#67F821"/></linearGradient><linearGradient id="paint18_linear" x1="6.5" y1="9.867" x2="4.004" y2="10.655" gradientUnits="userSpaceOnUse"><stop stop-color="#CAF768"/><stop offset="1" stop-color="#9DF730"/></linearGradient><linearGradient id="paint19_linear" x1="7.682" y1="11.501" x2="6.554" y2="14.011" gradientUnits="userSpaceOnUse"><stop stop-color="#B4FFB5"/><stop offset="1" stop-color="#92FF9A"/></linearGradient><linearGradient id="paint20_linear" x1="6.849" y1="11.131" x2="4.612" y2="13.959" gradientUnits="userSpaceOnUse"><stop stop-color="#A5FC64"/><stop offset="1" stop-color="#43E90D"/></linearGradient><linearGradient id="paint21_linear" x1="9.034" y1="11.501" x2="8.503" y2="14.014" gradientUnits="userSpaceOnUse"><stop stop-color="#D5F6FF"/><stop offset="1" stop-color="#B1FFED"/></linearGradient></defs></svg>
